; generated by PrusaSlicer 2.6.0+win64 on 2023-11-06 at 15:30:52 UTC


;
;

;
;

;
;
; 

; external perimeters extrusion width = 0.45mm
; perimeters extrusion width = 0.45mm
; infill extrusion width = 0.45mm
; solid infill extrusion width = 0.45mm
; top infill extrusion width = 0.40mm
; support material extrusion width = 0.37mm
; first layer extrusion width = 0.50mm

; external perimeters extrusion width = 0.45mm
; perimeters extrusion width = 0.45mm
; infill extrusion width = 0.45mm
; solid infill extrusion width = 0.45mm
; top infill extrusion width = 0.40mm
; support material extrusion width = 0.37mm
; first layer extrusion width = 0.50mm

M73 P0 R157
M201 X2500 Y2500 Z200 E2500 ; sets maximum accelerations, mm/sec^2
M203 X200 Y200 Z40 E100 ; sets maximum feedrates, mm / sec
M204 P2000 R1200 T2000 ; sets acceleration (P, T) and retract acceleration (R), mm/sec^2
M205 X8.00 Y8.00 Z2.00 E10.00 ; sets the jerk limits, mm/sec
M205 S0 T0 ; sets the minimum extruding and travel feed rate, mm/sec
;TYPE:Custom
M17 ; enable steppers
M862.3 P "MK4" ; printer model check
M862.1 P0.4 ; nozzle diameter check
M555 X74.2753 Y18.5 W65.7164 H178.074

G90 ; use absolute coordinates
M83 ; extruder relative mode

M140 S60 ; set bed temp

M104 S170 ; set extruder temp for bed leveling
M109 R170 ; wait for temp


M84 E ; turn off E motor

G28 ; home all without mesh bed level

G1 X42 Y-4 Z5 F4800

M302 S160 ; lower cold extrusion limit to 160C


G1 E-2 F2400 ; retraction


M84 E ; turn off E motor

G29 P9 X10 Y-4 W32 H4

M106 S100

G0 Z40 F10000

M190 S60 ; wait for bed temp

M107

;
; MBL
;
M84 E ; turn off E motor
G29 P1 ; invalidate mbl & probe print area
G29 P1 X0 Y0 W50 H20 C ; probe near purge place
G29 P3.2 ; interpolate mbl probes
G29 P3.13 ; extrapolate mbl outside probe area
G29 A ; activate mbl

; prepare for purge
M104 S215
G0 X0 Y-4 Z15 F4800 ; move away and ready for the purge
M109 S215

G92 E0
M569 S0 E ; set spreadcycle mode for extruder

;
; Extrude purge line
;
G92 E0 ; reset extruder position
G1 E2 F2400 ; deretraction after the initial one before nozzle cleaning
G0 E7 X15 Z0.2 F500 ; purge
G0 X25 E4 F500 ; purge
G0 X35 E4 F650 ; purge
G0 X45 E4 F800 ; purge
G0 X48 Z0.05 F8000 ; wipe, move close to the bed
G0 X51 Z0.2 F8000 ; wipe, move quickly away from the bed

G92 E0
M221 S100 ; set flow to 100%
G21 ; set units to millimeters
G90 ; use absolute coordinates
M83 ; use relative distances for extrusion
M900 K0.05 ; Filament gcode



M142 S36 ; set heatbreak target temp
M107
;LAYER_CHANGE
;Z:0.2
;HEIGHT:0.2
;BEFORE_LAYER_CHANGE
G92 E0.0
;0.2


G1 E-.8 F2100
G1 Z.2 F720
;AFTER_LAYER_CHANGE
;0.2
; printing object PenAgain.STL id:0 copy 0
G1 Z.4
G1 X100.919 Y36.213 F12000
G1 Z.2 F720
G1 E.8 F1500
M204 P600
;TYPE:Support material
;WIDTH:0.5
M73 P0 R156
G1 F1200
G1 X101.023 Y88.339 E1.98112
G1 X94.13 Y88.352 E.26198
G1 X93.774 Y88.71 E.01919
G1 X93.782 Y92.833 E.1567
G1 X94.14 Y93.19 E.01922
G1 X94.783 Y93.189 E.02444
G1 X94.928 Y166.495 E2.7861
G1 X91.195 Y179.96 E.53106
G1 X90.983 Y180.1 E.00966
G1 X89.811 Y184.326 E.16668
G1 X89.574 Y184.507 E.01133
G1 X89.337 Y184.327 E.01131
G1 X88.148 Y180.106 E.16667
G1 X87.935 Y179.967 E.00967
G1 X84.148 Y166.516 E.5311
G1 X84.003 Y93.21 E2.7861
G1 X84.645 Y93.209 E.0244
G1 X85.002 Y92.851 E.01922
G1 X84.994 Y88.728 E.1567
G1 X84.636 Y88.371 E.01922
G1 X77.743 Y88.385 E.26198
G1 X77.639 Y36.105 E1.98697
G1 X100.919 Y36.059 E.88479
G1 X100.919 Y36.145 E.00327
M204 P1000
G1 X100.186 Y88.135 F12000
M204 P600
G1 F1200
G1 X100.186 Y36.472 E1.96352
G1 X99.615 Y36.473 E.0217
G1 X99.615 Y87.93 E1.95569
G1 X99.044 Y87.931 E.0217
G1 X99.044 Y36.474 E1.95569
G1 X98.472 Y36.475 E.02174
G1 X98.472 Y87.932 E1.95569
G1 X97.901 Y87.934 E.0217
G1 X97.901 Y36.476 E1.95573
G1 X97.33 Y36.477 E.0217
G1 X97.33 Y87.935 E1.95573
G1 X96.758 Y87.936 E.02174
G1 X96.758 Y36.478 E1.95573
G1 X96.187 Y36.48 E.0217
G1 X96.187 Y87.937 E1.95569
G1 X95.616 Y87.938 E.0217
G1 X95.616 Y36.481 E1.95569
G1 X95.044 Y36.482 E.02174
G1 X95.044 Y87.939 E1.95569
G1 X94.473 Y87.94 E.0217
G1 X94.473 Y36.483 E1.95569
G1 X93.901 Y36.484 E.02174
G1 X93.901 Y87.999 E1.9579
G1 X93.362 Y88.541 E.02905
G1 X93.371 Y93.005 E.16966
G1 X93.901 Y93.533 E.02843
G1 X93.901 Y168.659 E2.85526
G1 X94.473 Y166.599 E.08126
G1 X94.473 Y93.395 E2.78222
M204 P1000
G1 X93.33 Y171.49 F12000
M204 P600
G1 F1200
G1 X93.33 Y36.485 E5.13104
G1 X92.759 Y36.486 E.0217
G1 X92.759 Y172.781 E5.18007
G1 X92.187 Y174.841 E.08126
G1 X92.187 Y36.488 E5.25829
G1 X91.616 Y36.489 E.0217
G1 X91.616 Y176.902 E5.33658
G1 X91.045 Y178.963 E.08128
G1 X91.045 Y36.49 E5.41488
G1 X90.473 Y36.491 E.02174
M73 P0 R155
G1 X90.473 Y180.397 E5.46934
G1 X89.902 Y182.458 E.08128
G1 X89.902 Y36.492 E5.54763
G1 X89.331 Y36.493 E.0217
G1 X89.331 Y182.787 E5.5601
G1 X88.759 Y180.758 E.08012
G1 X88.759 Y36.494 E5.48294
G1 X88.188 Y36.496 E.0217
M73 P1 R155
G1 X88.188 Y179.345 E5.42917
G1 X87.617 Y177.316 E.08011
G1 X87.617 Y36.497 E5.35201
G1 X87.045 Y36.498 E.02174
G1 X87.045 Y175.287 E5.27486
G1 X86.474 Y173.258 E.08011
G1 X86.474 Y36.499 E5.19771
G1 X85.903 Y36.5 E.0217
M73 P1 R154
G1 X85.903 Y171.228 E5.12052
G1 X85.331 Y169.199 E.08012
G1 X85.331 Y36.501 E5.04336
G1 X84.76 Y36.502 E.0217
G1 X84.76 Y87.96 E1.95573
G1 X84.189 Y87.961 E.0217
G1 X84.189 Y36.504 E1.95569
G1 X83.617 Y36.505 E.02174
G1 X83.617 Y87.962 E1.95569
G1 X83.046 Y87.963 E.0217
G1 X83.046 Y36.506 E1.95569
G1 X82.474 Y36.507 E.02174
G1 X82.474 Y87.964 E1.95569
G1 X81.903 Y87.965 E.0217
G1 X81.903 Y36.508 E1.95569
G1 X81.332 Y36.509 E.0217
G1 X81.332 Y87.967 E1.95573
G1 X80.76 Y87.968 E.02174
G1 X80.76 Y36.51 E1.95573
G1 X80.189 Y36.511 E.0217
G1 X80.189 Y87.969 E1.95573
G1 X79.618 Y87.97 E.0217
G1 X79.618 Y36.513 E1.95569
G1 X79.046 Y36.514 E.02174
M73 P1 R153
G1 X79.046 Y87.971 E1.95569
G1 X78.475 Y87.972 E.0217
M73 P2 R153
G1 X78.475 Y36.309 E1.96352
M204 P1000
G1 E-.64 F2100
;WIPE_START
G1 F9600
G1 X78.475 Y37.079 E-.16
;WIPE_END
G1 Z.4 F720
G1 X84.76 Y167.929 F12000
G1 Z.2 F720
G1 E.8 F1500
M204 P600
G1 F1200
G1 X84.76 Y93.385 E2.83314
M204 P1000
G1 E-.64 F2100
;WIPE_START
G1 F9600
G1 X84.76 Y94.155 E-.16
;WIPE_END
G1 Z.4 F720
G1 X91.271 Y180.695 F12000
G1 Z.2 F720
G1 E.8 F1500
M204 P600
;TYPE:Support material interface
;WIDTH:0.37
G1 F1200
G1 X91.271 Y180.609 E.00234
G1 X91.217 Y180.804 E.0055
G1 X91.271 Y180.859 E.0021
G1 X91.273 Y181.606 E.02032
G1 X91.055 Y181.388 E.00838
G1 X90.893 Y181.971 E.01646
G1 X91.274 Y182.353 E.01467
G1 X91.276 Y183.1 E.02032
G1 X90.731 Y182.555 E.02096
G1 X90.569 Y183.139 E.01648
G1 X91.277 Y183.847 E.02723
G1 X91.279 Y184.593 E.02029
G1 X90.408 Y183.722 E.0335
G1 X90.246 Y184.306 E.01648
G1 X91.28 Y185.34 E.03977
G1 X91.282 Y186.087 E.02032
G1 X89.941 Y184.747 E.05156
G1 X89.728 Y184.91 E.00729
M204 P1000
G1 X88.914 Y184.352 F12000
M204 P600
G1 F1200
G1 X88.666 Y183.472 E.02487
G1 X87.866 Y182.672 E.03077
G1 X87.865 Y181.925 E.02032
G1 X88.374 Y182.434 E.01958
G1 X88.082 Y181.397 E.0293
G1 X87.863 Y181.178 E.00842
G1 X87.862 Y180.615 E.01531
G1 X88.038 Y181.239 E.01763
M204 P1000
G1 E-.64 F2100
;WIPE_START
G1 F9600
G1 X87.862 Y180.615 E-.13473
G1 X87.862 Y180.737 E-.02527
;WIPE_END
G1 Z.4 F720
G1 X87.867 Y182.835 F12000
G1 Z.2 F720
G1 E.8 F1500
M204 P600
G1 F1200
G1 X87.868 Y183.419 E.01588
G1 X88.958 Y184.509 E.04192
G1 X88.977 Y184.573 E.00182
G1 X89.165 Y184.716 E.00642
G1 X91.283 Y186.834 E.08146
G1 X91.285 Y187.581 E.02032
G1 X87.869 Y184.165 E.13139
G1 X87.871 Y184.912 E.02032
G1 X91.286 Y188.328 E.13137
G1 X91.288 Y189.075 E.02032
G1 X87.872 Y185.659 E.13139
G1 X87.874 Y186.406 E.02032
G1 X91.289 Y189.822 E.13137
G1 X91.291 Y190.569 E.02032
G1 X87.875 Y187.153 E.13139
G1 X87.877 Y187.9 E.02032
G1 X91.292 Y191.315 E.13135
G1 X91.294 Y192.062 E.02032
G1 X87.878 Y188.647 E.13137
G1 X87.88 Y189.394 E.02032
G1 X91.295 Y192.809 E.13135
G1 X91.297 Y193.556 E.02032
G1 X87.881 Y190.141 E.13137
G1 X87.883 Y190.887 E.02029
G1 X91.298 Y194.303 E.13137
G1 X91.299 Y194.922 E.01683
G1 X91.172 Y194.923 E.00345
G1 X87.884 Y191.634 E.12648
G1 X87.886 Y192.381 E.02032
G1 X90.429 Y194.924 E.09781
G1 X89.685 Y194.926 E.02023
G1 X87.887 Y193.128 E.06915
G1 X87.889 Y193.875 E.02032
G1 X88.941 Y194.927 E.04046
G1 X88.197 Y194.929 E.02023
G1 X87.89 Y194.622 E.01181
G1 X87.891 Y194.929 E.00835
G1 X88.033 Y194.929 E.00386
M204 P1000
G1 E-.64 F2100
;WIPE_START
G1 F9600
G1 X87.891 Y194.929 E-.02951
G1 X87.89 Y194.622 E-.0638
G1 X88.117 Y194.849 E-.06669
;WIPE_END
G1 Z.4 F720
G1 X90.48 Y196.337 F12000
G1 Z.2 F720
G1 E.8 F1500
M204 P600
;TYPE:Support material
;WIDTH:0.5
G1 F1200
G1 X86.48 Y196.345 E.15203
G1 X86.479 Y195.705 E.02432
G1 X87.621 Y195.703 E.0434
G1 X87.978 Y195.343 E.01927
G1 X90.478 Y195.338 E.09502
G1 X90.48 Y196.269 E.03538
M204 P1000
G1 X89.902 Y196.133 F12000
M204 P600
G1 F1200
G1 X89.902 Y195.75 E.01456
G1 X89.331 Y195.751 E.0217
G1 X89.331 Y195.928 E.00673
G1 X88.759 Y195.929 E.02174
G1 X88.759 Y195.752 E.00673
G1 X88.188 Y195.754 E.0217
G1 X88.188 Y196.136 E.01452
M204 P1000
G1 E-.64 F2100
;WIPE_START
G1 F9600
G1 X88.188 Y195.754 E-.07938
G1 X88.576 Y195.753 E-.08062
;WIPE_END
G1 Z.4 F720
G1 X101.945 Y89.832 F12000
G1 Z.2 F720
G1 E.8 F1500
M204 P600
;TYPE:Perimeter
;WIDTH:0.499999
G1 F1200
G1 X102.121 Y89.801 E.00679
G1 X102.405 Y89.579 E.0137
G1 X102.532 Y89.286 E.01214
G1 X102.542 Y89.167 E.00454
G1 X102.434 Y35.224 E2.05018
G1 X102.296 Y34.813 E.01648
G1 X102.011 Y34.592 E.01371
G1 X101.747 Y34.54 E.01023
G1 X76.975 Y34.589 E.94149
G1 X76.541 Y34.643 E.01662
G1 X76.257 Y34.865 E.0137
G1 X76.12 Y35.277 E.0165
G1 X76.228 Y89.22 E2.05018
G1 X76.238 Y89.338 E.0045
G1 X76.365 Y89.631 E.01214
G1 X76.651 Y89.852 E.01374
G1 X76.915 Y89.904 E.01023
G1 X83.479 Y89.891 E.24947
G1 X83.482 Y91.694 E.06853
G1 X83.168 Y91.695 E.01193
G1 X82.897 Y91.751 E.01052
G1 X82.656 Y91.926 E.01132
G1 X82.527 Y92.141 E.00953
G1 X82.484 Y92.382 E.0093
G1 X82.632 Y166.633 E2.82201
G1 X82.657 Y166.818 E.0071
G1 X86.431 Y180.22 E.52917
G1 X86.455 Y191.304 E.42126
G1 X81.469 Y173.978 E.68522
G1 X81.309 Y93.884 E3.04408
G1 X81.199 Y93.513 E.01471
G1 X80.955 Y93.285 E.01269
G1 X80.825 Y93.23 E.00536
G1 X80.622 Y93.2 E.0078
G1 X75.308 Y93.21 E.20197
G1 X75.184 Y31.025 E2.36342
G1 X103.353 Y30.969 E1.0706
G1 X103.477 Y93.154 E2.36342
G1 X98.061 Y93.173 E.20584
G1 X97.83 Y93.252 E.00928
G1 X97.587 Y93.48 E.01266
G1 X97.479 Y93.852 E.01472
G1 X97.638 Y173.946 E3.04408
G1 X92.721 Y191.291 E.6852
G1 X92.701 Y180.207 E.42126
G1 X96.421 Y166.79 E.52917
G1 X96.446 Y166.606 E.00706
G1 X96.299 Y93.104 E2.79354
G1 X96.283 Y92.213 E.03387
G1 X96.124 Y91.9 E.01334
G1 X95.882 Y91.725 E.01135
G1 X95.611 Y91.67 E.01051
G1 X95.297 Y91.671 E.01193
G1 X95.293 Y89.867 E.06856
M73 P2 R152
G1 X101.819 Y89.854 E.24803
G1 X101.886 Y89.842 E.00259
M204 P1000
G1 X101.856 Y89.397 F12000
M204 P600
;TYPE:External perimeter
G1 F1200
G1 X102.039 Y89.305 E.00778
G1 X102.085 Y89.168 E.00549
G1 X101.977 Y35.225 E2.05018
G1 X101.931 Y35.088 E.00549
G1 X101.748 Y34.997 E.00777
G1 X76.805 Y35.047 E.94799
G1 X76.623 Y35.139 E.00775
G1 X76.577 Y35.276 E.00549
G1 X76.685 Y89.219 E2.05018
G1 X76.731 Y89.356 E.00549
G1 X76.914 Y89.447 E.00777
G1 X83.935 Y89.433 E.26684
G1 X83.94 Y92.15 E.10326
G1 X83.169 Y92.152 E.0293
G1 X82.998 Y92.229 E.00713
G1 X82.941 Y92.381 E.00617
G1 X83.089 Y166.632 E2.82201
G1 X83.097 Y166.694 E.00238
G1 X86.888 Y180.156 E.53154
G1 X86.914 Y192.1 E.45395
;WIDTH:0.530548
G1 X86.905 Y192.357 E.01043
;WIDTH:0.561096
G1 X86.897 Y192.614 E.01108
G1 X86.954 Y193.126 E.0222
;WIDTH:0.521455
G1 X87.074 Y194.121 E.03988
;WIDTH:0.505347
G1 X86.963 Y194.672 E.02161
G1 X86.802 Y194.686 E.00621
G1 X86.737 Y194.577 E.00488
;WIDTH:0.50632
G1 X86.616 Y194.08 E.01971
;WIDTH:0.522229
G1 X86.477 Y193.169 E.03673
;WIDTH:0.557373
G1 X86.379 Y192.671 E.02171
G1 X86.295 Y192.39 E.01255
;WIDTH:0.528686
G1 X86.211 Y192.109 E.01185
;WIDTH:0.499999
G1 X81.012 Y174.043 E.71449
G1 X80.852 Y93.885 E3.04651
G1 X80.816 Y93.761 E.00491
G1 X80.734 Y93.685 E.00425
G1 X80.623 Y93.657 E.00435
G1 X74.852 Y93.668 E.21933
G1 X74.726 Y30.568 E2.3982
G1 X103.81 Y30.511 E1.10538
G1 X103.814 Y32.752 E.08517
G1 X103.935 Y93.61 E2.31299
G1 X98.164 Y93.622 E.21933
G1 X98.13 Y93.625 E.0013
G1 X97.972 Y93.727 E.00715
G1 X97.936 Y93.851 E.00491
G1 X98.095 Y174.009 E3.04651
G1 X92.948 Y192.179 E.71775
;WIDTH:0.530547
G1 X92.871 Y192.43 E.01065
;WIDTH:0.561095
G1 X92.795 Y192.682 E.01134
G1 X92.703 Y193.182 E.0219
;WIDTH:0.521453
G1 X92.488 Y194.489 E.0527
;WIDTH:0.505347
G1 X92.387 Y194.675 E.00814
G1 X92.226 Y194.661 E.00621
G1 X92.211 Y194.528 E.00515
;WIDTH:0.506318
G1 X92.112 Y194.004 E.02055
;WIDTH:0.522227
M73 P3 R152
G1 X92.23 Y193.103 E.03622
;WIDTH:0.557372
G1 X92.283 Y192.591 E.02202
G1 X92.274 Y192.338 E.01083
;WIDTH:0.528686
G1 X92.265 Y192.084 E.01027
;WIDTH:0.499999
G1 X92.244 Y180.146 E.45372
G1 X95.98 Y166.668 E.53156
G1 X95.989 Y166.607 E.00234
G1 X95.841 Y92.355 E2.82205
G1 X95.783 Y92.204 E.00615
G1 X95.612 Y92.127 E.00713
G1 X94.84 Y92.129 E.02934
G1 X94.835 Y89.411 E.1033
G1 X101.796 Y89.397 E.26456
M204 P1000
G1 X102.024 Y89.515 F12000
G1 E-.64 F2100
;WIPE_START
G1 F9600
G1 X102.039 Y89.305 E-.054
G1 X102.085 Y89.168 E-.03003
G1 X102.084 Y88.802 E-.07597
;WIPE_END
G1 Z.4 F720
G1 X102.224 Y31.177 F12000
G1 Z.2 F720
G1 E.8 F1500
M204 P600
;TYPE:Solid infill
;WIDTH:0.501131
G1 F1200
G1 X102.944 Y31.897 E.0388
G1 X102.945 Y32.546 E.02473
G1 X101.782 Y31.383 E.06266
G1 X101.135 Y31.384 E.02465
G1 X102.946 Y33.195 E.09758
G1 X102.948 Y33.845 E.02477
G1 X100.489 Y31.386 E.1325
G1 X99.842 Y31.387 E.02465
G1 X102.949 Y34.494 E.16741
G1 X102.95 Y35.143 E.02473
G1 X99.195 Y31.388 E.20233
G1 X98.549 Y31.39 E.02461
G1 X101.289 Y34.13 E.14764
G1 X100.642 Y34.131 E.02465
G1 X97.902 Y31.391 E.14764
G1 X97.255 Y31.392 E.02465
G1 X99.995 Y34.132 E.14764
G1 X99.348 Y34.134 E.02465
G1 X96.608 Y31.393 E.14766
G1 X95.962 Y31.395 E.02461
G1 X98.702 Y34.135 E.14764
G1 X98.055 Y34.136 E.02465
G1 X95.315 Y31.396 E.14764
G1 X94.668 Y31.397 E.02465
G1 X97.408 Y34.137 E.14764
G1 X96.762 Y34.139 E.02461
G1 X94.021 Y31.399 E.14766
G1 X93.375 Y31.4 E.02461
G1 X96.115 Y34.14 E.14764
G1 X95.468 Y34.141 E.02465
G1 X92.728 Y31.401 E.14764
G1 X92.081 Y31.402 E.02465
G1 X94.821 Y34.143 E.14766
G1 X94.175 Y34.144 E.02461
G1 X91.435 Y31.404 E.14764
G1 X90.788 Y31.405 E.02465
G1 X93.528 Y34.145 E.14764
G1 X92.881 Y34.146 E.02465
G1 X90.141 Y31.406 E.14764
G1 X89.494 Y31.408 E.02465
G1 X92.235 Y34.148 E.14766
G1 X91.588 Y34.149 E.02465
G1 X88.848 Y31.409 E.14764
G1 X88.201 Y31.41 E.02465
G1 X90.941 Y34.15 E.14764
G1 X90.294 Y34.152 E.02465
G1 X87.554 Y31.411 E.14766
G1 X86.908 Y31.413 E.02461
G1 X89.648 Y34.153 E.14764
G1 X89.001 Y34.154 E.02465
G1 X86.261 Y31.414 E.14764
G1 X85.614 Y31.415 E.02465
G1 X88.354 Y34.155 E.14764
G1 X87.707 Y34.157 E.02465
G1 X84.967 Y31.417 E.14764
G1 X84.321 Y31.418 E.02461
G1 X87.061 Y34.158 E.14764
G1 X86.414 Y34.159 E.02465
G1 X83.674 Y31.419 E.14764
G1 X83.027 Y31.42 E.02465
G1 X85.767 Y34.161 E.14766
G1 X85.121 Y34.162 E.02461
G1 X82.38 Y31.422 E.14766
G1 X81.734 Y31.423 E.02461
G1 X84.474 Y34.163 E.14764
G1 X83.827 Y34.164 E.02465
G1 X81.087 Y31.424 E.14764
G1 X80.44 Y31.426 E.02465
G1 X83.18 Y34.166 E.14764
G1 X82.534 Y34.167 E.02461
G1 X79.794 Y31.427 E.14764
G1 X79.147 Y31.428 E.02465
G1 X81.887 Y34.168 E.14764
G1 X81.24 Y34.17 E.02465
G1 X78.5 Y31.429 E.14766
G1 X77.853 Y31.431 E.02465
G1 X80.594 Y34.171 E.14766
G1 X79.947 Y34.172 E.02465
G1 X77.207 Y31.432 E.14764
G1 X76.56 Y31.433 E.02465
G1 X79.3 Y34.173 E.14764
G1 X78.653 Y34.175 E.02465
G1 X75.913 Y31.435 E.14764
G1 X75.596 Y31.435 E.01208
G1 X75.597 Y31.766 E.01261
G1 X78.007 Y34.176 E.12986
G1 X77.36 Y34.177 E.02465
G1 X75.598 Y32.416 E.09491
G1 X75.6 Y33.065 E.02473
G1 X76.725 Y34.191 E.06064
G1 X76.374 Y34.262 E.01364
G1 X76.247 Y34.361 E.00614
G1 X75.601 Y33.714 E.03483
G1 X75.602 Y34.364 E.02477
G1 X75.902 Y34.664 E.01616
G1 X75.741 Y35.15 E.01951
G1 X75.603 Y35.013 E.00741
G1 X75.605 Y35.662 E.02473
G1 X75.71 Y35.767 E.00566
G1 X75.711 Y36.416 E.02473
